images/facebook.svg

<svg xmlns="http://www.w3.org/2000/svg" width="77.667" height="77.667" viewBox="0 0 77.667 77.667"><path fill="#273AAD" d="M77.75 13.085c0-6.787-6.127-12.917-12.916-12.917h-51.666c-6.79 0-12.917 6.13-12.917 12.917v51.664c0 6.787 6.127 12.917 12.917 12.917h25.832v-29.277h-9.472v-12.916h9.472v-5.032c0-8.679 6.518-16.495 14.531-16.495h10.441v12.917h-10.441c-1.143 0-2.476 1.387-2.476 3.465v5.146h12.917v12.917h-12.916v29.277h13.778c6.789 0 12.916-6.13 12.916-12.917v-51.666z"/></svg>

<?xml version="1.0" encoding="utf-8"?>
<!-- Generator: Adobe Illustrator 17.0.2, SVG Export Plug-In . SVG Version: 6.00 Build 0)  -->
<!DOCTYPE svg PUBLIC "-//W3C//DTD SVG 1.1//EN" "http://www.w3.org/Graphics/SVG/1.1/DTD/svg11.dtd">
<svg version="1.1" id="Layer_1" xmlns="http://www.w3.org/2000/svg" xmlns:xlink="http://www.w3.org/1999/xlink" x="0px" y="0px"
	 width="77.667px" height="77.667px" viewBox="0 0 77.667 77.667" enable-background="new 0 0 77.667 77.667" xml:space="preserve">
<path id="Facebook__x28_alt_x29_" fill="#273AAD" d="M77.75,13.085c0-6.787-6.127-12.917-12.916-12.917H13.168
	c-6.79,0-12.917,6.13-12.917,12.917v51.664c0,6.787,6.127,12.917,12.917,12.917H39V48.389h-9.472V35.473H39v-5.032
	c0-8.679,6.518-16.495,14.531-16.495h10.441v12.917H53.531c-1.143,0-2.476,1.387-2.476,3.465v5.146h12.917v12.917H51.056v29.277
	h13.778c6.789,0,12.916-6.13,12.916-12.917V13.085z"/>
</svg>
